X: 28169
T: Mrs McGhee
R: jig
M: 6/8
K: Gminor
D|G3 B3|dBG GBd|cAF F2f|c2B A/B/cA|
G3 B3|dBG GBd|def cAc|dBG G2:|
D|GBd gab|ag=e f3|cAF F2f|c2B A/B/cA|
GBd gab|ag^f g3|BAB cde|dBG G2 D|
GBd gab|ag=e f3|cAF F2f|c2B A/B/cA|
bag ag^f|gfe dcB|BAB cde|dBG G2D||

